X:3500
T:Cliffs of Moher
R:Jig
Z:Paul Hardy's Possible Tunebook 2015 (see www.paulhardy.net). Creative Commons cc by-nc-sa licenced.
M:6/8
K:Ador
"Am"a2a bag|eaf "G"ged|"Am"c2A BAG|"Em"EFG ABd|
"Am"eaa bag|eaf "G"ged|"Am"c2A BAG|"Em"EFG "Am"A3:|
|:"Am"e=fe dBA|e3 dBA|"G"GAB dBA|GAB ~d3|
[1"Am"e=fe dBA|e3 dBA|"G"GAB dBG|"Em"EFG "Am"E3:|
[2 "Am"e=fe dee|cee Bee|EFG BAG|"G"EDB, "Am"A,3|]

